X:1
T:Widerstehe doch der Sünde - BWV54
T:Widerstehe doch der Sünde
T:Aria from BWV 54 Transcribed for piano by Víkingur Ólafsson Notation by Andres Truus from Ólaffson performance (December 2019) 
T:J.S. Bach 1685 - 1750 
T:2020
T:2020
T:2020
T:2020
T:2020
C:J.S. Bach
Z:Andres Truus from Víkingur Ólafsson transcription for piano and performance Dec. 2019
Z:2020
%%score { ( 1 2 6 ) | ( 3 7 ) | ( 4 5 ) }
L:1/8
Q:1/4=40
M:4/4
K:Eb
V:1 treble nm=" "
V:2 treble 
V:6 treble 
V:3 treble 
V:7 treble 
V:4 bass 
V:5 bass 
V:1
!pp! z2 z2 AAAA |!<(! BBBB cccc | _dd d/c/d/B/- c2- c/B/c/A/- | %3
 B!3
2
!c/!4
1
!d/ !5
2
!e2- e/!4!d/!2
5
!e/!3!c/ !4!d!3
2
!f- | %4
 f/!4
!e/!5
2
!f/!3!d/ !4!e!5!g- g/!4!f/!5!g/!3!e/ !4!f!5
2
!a- | %5
 a/!4!g/!5
3
!a/!3!f/ !5!g2- g/f/g/e/ fb!<)! | %6
 !4
1
!=a/!5
1
!b/a/c'/ !4
1
!f/!5
2
!g/f/g/ a/b/a/c'/ !4
1
!f/!5
2
!g/!3
1
!f/!4
1
!a/ | %7
!>(! !5
2
!b/!4
1
!g/_a/f/ g/e/f/d/ e>!>)!f d>e | %8
 !5!e/!1!G/!3!A/!1!F/ !5
2
!G/!4
1
!E/!5
2
!F/!4
1
!D/ e4 | %9
"^C, E Voice 3 crotchet" x/ A/G/[Ac]/ [GB][FA]/[EG]/ [EG]>[FA] [EG][DF]/E/ | %10
 E z!mf! D/C/D/B,/ AA A/F/D/A/ | A/G/G!pp! D/C/D/B,/ AAAA | BBBB cccc | %13
!mp! !5
3
!fff!5
4
!f- f/e/f/d/ !5
3
!e2- | e/d/e/c/ !4-5
2
!d2- d/c/d/e/ c-!1!F | %15
 c/!4!B/!5!c/!4!=A/ !5!B2 z4 | z2 z2 z2!p! =A/G/A/F/ | eeee ffff | gggg _aa!mp! a/g/a/f/- | %19
 f/e/f/d/ g/f/g/e/- fg/=a/ bB | [Bc]/[=Ac]/B/G/ Ac c/B/c/A/ Bd- | d/c/d/B/ ce e/d/e/c/ d2 | %22
 d/c/d/B/ cf =e/f/e/g/ c/d/c/d/ | =e/f/e/g/ c/d/c/e/ f/d/_e/c/ d/B/c/=A/ |!p! B>c =A>B B2 z2 | %25
!mp! z4 BBBB | _dd d/c/d/B/ c2- c/B/c/A/ | B2- B/A/B/G/ A>B c/A/G/F/ | F2 z2 z!p! B/A/ Be | %29
 d/e/d/f/ B/c/B/c/ d/e/d/f/ B/c/B/d/ | e2 z2 z4 | z4 z2 D/C/D/B,/ | AAAA BBBB | cccc _dd d/c/d/B/ | %34
 c2- c/B/c/A/- Bc/=d/ e2- | e/d/e/c/ df- f/e/f/d/ eg- | g/f/g/e/ fa- a/g/a/f/ g2- | %37
 g/f/g/e/ fb =a/b/a/c'/ f/g/f/g/ | =a/b/a/c'/ f/g/f/a/ b/g/_a/f/ g/e/f/d/ | %39
 e>f d>e e z [B,G]/[G,E]/[A,F]/[F,D]/ | %40
 e4 e>c"^rit. _     _     _     _     _    _"[Q:1/4=40] B[Q:1/4=38]"^.6"A/[Q:1/4=37]"^.9"G/ | %41
[Q:1/4=37]"^.3" G>[Q:1/4=35]"^.4"A[Q:1/4=34]"^.8" G[Q:1/4=33]"^.6"F/[Q:1/4=33]E/[Q:1/4=32]"^.4" !fermata![G,B,E]2 z2[Q:1/4=36] |] %42
V:2
 z2 D/C/D/B,/ z2 D/C/D/B,/ | A/G/A/F/ G/F/G/E/ B/A/B/G/ A/G/A/F/ | c/B/c/A/ B2 B/A/B/G/ A2 | %3
 A/G/A/F/ G/!1!F/!3!G/!2!E/ !1!FA>GA/F/ | G>A B/G/ z c2- c/B/c/A/ | %5
 df>!2!e!4!f/!1!d/ !3!e/d/e/c/ d/c/d/B/ | c/d/c/e/ =A/B/A/B/ c/d/c/e/ A/B/A/c/ | %7
 d/B/c/_A/ B/G/A/F/ G>A F/Pd/ z/ z/ | z/ z/ z/ z/ B,/G,/A,/F,/ E/!2!G/F/!3!A/ G/B/A/B/ | E4 x4 | %10
 x8 | x4 z z D/C/D/B,/ | A/G/A/F/ G/F/G/E/ B/=A/B/G/ A/G/A/F/ | c/B/c/=A/ Bd- d/c/d/B/ c2- | %14
 c/B/c/c/ B2- B/=A/B/B/ z2 | !2!F2 z2 z4 | x8 | z2 =A/G/A/F/ e/d/e/=c/ d/c/d/B/ | %18
 f/e/f/d/ e/d/e/c/ g/f/g/e/ f2 | g2- e2 e/d/e/c/ d/c/d/B/- | x8 | EG- G/F/G/E/ =A c2 c/A/ | %22
 B/=A/B/G/ A/G/A/F/ G/A/G/B/ =E/F/E/F/ | G/=A/G/B/ =E/F/E/G/ A/F/G/_E/ F/D/E/C/ | D>E C/PG z/ z4 | %25
 z2 D/C/D/B,/ z2 G/F/G/E/ | B/A/G/A/ B/A/B/ z/ A2 A/G/A/C/ | F/E/F/B,/ E2- E/E/F/G/ A/F/E/D/ | %28
 D2 z2 z2 G/F/G/E/ | F/G/F/A/ D/E/D/E/ F/G/F/A/ D/E/D/F/ | G2 x6 | x8 | %32
 z2 D/C/D/B,/ A/G/A/F/ G/F/G/E/ | B/A/B/G/ A/G/A/F/ A/G/A/F/ B>B- | B/A/B/G/ A2 A/G/A/F/ G/F/G/E/ | %35
 FA>GA/F/ GB>AB/G/ | c2- c/B/c/A/ Bd>ef/d/ | e/d/e/c/ d/c/d/B/ c/d/c/e/ =A/B/A/B/ | %38
 c/d/c/e/ =A/B/A/c/ d/B/c/_A/ B/G/A/F/ | G>A F/Pc z/ B/G/A/F/ x2 | E/G/F/A/ G/B/A/B/ c/A/G/A/ G>E | %41
 E>F [B,E][A,D] z4 |] %42
V:3
 z8 | z8 | z8 | z8 | z8 | z8 | z8 | z8 | z8 | z8 | z8 | z8 | z8 | %13
 z2[K:treble] z z/"^R.H."!mf! A/4B/4 G2- G/F/G/E/ | F2- F/!3!B/=A/B/"_L.H." E>G FE/D/ | %15
 !2!D"_R.H."!1!F/!2!E/ !1!D/!2!C/!3!D/B,/ GB,/C/ =A,2- | A,/G/F/E/ DC/B,/ B,4 | z8 | z8 | z8 | z8 | %21
 z8 | z8 | z8 | z8 |!f! AA A/F/D/A/ A/G/G BG | E4- EF/G/ A2- | A/G/A/F/ G2- G>C DE/F/ | %28
 DF/E/ D/C/D/B,/ E4 | z8 |!f!"_L.H." E>F G/A/F/G/ A/G/ A2!p! B/E/ | C/A/G/F/ F>E E2 z2 | z8 | z8 | %34
 z8 | z8 | z8 | z8 | z8 | z8 | z8 | z8 |] %42
V:4
 [E,,E,][E,,E,][E,,E,][E,,E,] [E,,E,][E,,E,][E,,E,][E,,E,] | E,E,E,E, E,A,[F,A,][F,A,] | %2
 E,[F,A,][G,B,][G,B,] E,A,[F,A,][F,A,] | E,[F,D]B,B, E,[F,A,][F,D][F,D] | %4
 !arpeggio![B,,E,][G,B,][G,E][G,E] [E,A,]E[CA][CA] | !arpeggio![F,B,][DF][EB][EB] B,B[FB][FB] | %6
 [CE][CE][CE][CE] [CE][CE][CE][CE] | z z [B,E][B,E] A,A, z2 | %8
 G,2 z2 G,/!2!E,/F,/!3!D,/ E,/G,/F,/G,/ | A,,A,,B,,B,, C,A,,B,,B,, | %10
!p! [E,,,E,,][E,,,E,,][E,,,E,,][E,,,E,,] [E,,,E,,][E,,,E,,][E,,,E,,][E,,,E,,] | %11
 [E,,,E,,][E,,,E,,][E,,E,][E,,E,] [E,,E,][E,,E,][E,,E,][E,,E,] | %12
 z2!mf! B,/A,/B,/G,/ EE E/C/=A,/E/ | B,B, z z [E,,E,][E,,E,][C,,C,][C,,C,] | %14
 [=A,,,=A,,][A,,,A,,][B,,B,][B,,B,] G,G,=A,A, | %15
 !4!B,[B,,B,][B,,B,][B,,B,] [=E,,=E,][E,,E,] _E,/D,/E,/C,/ | %16
 D,/C,/D,/B,,/ F,F,, [B,,,B,,][B,,B,][B,,B,][B,,B,] | %17
 [B,,,B,,][B,,,B,,][B,,,B,,][B,,,B,,] [B,,,B,,][B,,B,]!mf! B,/=A,/B,/G,/ | EE E/C/=A,/E/ E/D/ D3 | %19
 B,[EB][EB][EB] BB!f! B,/=A,/B,/G,/ | EE E/C/=A,/E/ E/D/D!ff! !arpeggio!!>!F!arpeggio!!>![FB] | %21
 !>!G>!>!F !>!E!>!D/!>!C/ !>!C z !>!F!>!G/!>!F/ |!f! F2 CC [G,B,][G,B,][G,B,][G,B,] | %23
 [G,B,][G,B,][G,B,][G,B,] CC[F,B,][F,B,] | E,E, z z z z!f! D/C/D/B,/ | %25
!mp! D,/C,/D,/B,,/ B,B,, E,E,E,E, | G,/F,/G,/E,/ EE, A,A,F,F, | D,D,E,E, C,C,A,,A,, | %28
 B,,B,,A,,A,, G,,E,,E,,E,, | B,B,A,A, B,B,A,A, | z!p! G,/F,/ =E,/D,/E,/C,/ F,B,/A,/ G,/F,/G,/_E,/ | %31
 A,F,B,B,, E,E,E,E, | [E,,E,][E,,E,][E,,E,][E,,E,] [E,,E,][E,,E,][E,,E,][E,,E,] | %33
 E,[F,A,][F,A,]A, E,[F,B,][G,B,][G,B,] | E,A,A,[F,A,] E,[F,D]B,B, | %35
 E,[F,A,]F,F, E,[G,B,][G,E][G,E] | A,E[CA][CA] B,[DF][EB][EB] | B,B[FB][FB] [CE][CE][CE][CE] | %38
 [CE][CE][CE][CE] F z z2 | A,A,B,B, E,E,D,D, | C,C,B,,B,, A,,A,,B,,B,, | %41
 C,A,,B,,B,, !fermata!E,,2 z2 |] %42
V:5
 x8 | E,,4 E,,E,E,E, | E,,E,E,E, E,,E,E,E, | E,,E,E,E, E,,E,E,E, | E,,E,E,E, A,,A,A,A, | %5
 !arpeggio!B,,B,B,B, B,,B,B,B, | B,B,B,B, B,B,B,B, | [B,F] z E,E, A,,A,,B,,B,, | %8
 E,E,D,D, C,C,B,,B,, | x8 | x8 | x8 | [E,,,E,,][E,,E,]D,D, C,-C,F,F, | E/D/D FG z4 | x8 | x8 | x8 | %17
 x8 | z6!p! B2 | B,,B,B,B, B,B, z2 | G,,2 z2 z2 !arpeggio!B,/E/B,/D/ | %21
 E,E,!arpeggio![E,G,C]E, F,F,F, z | F,F,F,F, F,F,F,F, | F,F,F,F, F,F,B,,B,, | %24
 E,,E,,F,,F,, B,,B,,B,,B,, | x8 | x8 | x8 | x8 | A,A,F,F, A,A,F,F, | x8 | x8 | x8 | %33
 E,,E,E,E, E,,E,E,E, | E,,E,E,E, E,,E,E,E, | E,,E,E,E, !arpeggio![E,,B,,]E,E,E, | %36
 !arpeggio![A,,E,]A,A,A, !arpeggio![B,,F,]B,B,B, | B,,B,B,B, B,B,B,B, | B,B,B,B, B, z E,E, | x8 | %40
 x8 | x8 |] %42
V:6
 x8 | x8 | x8 | x8 | x8 | x8 | x8 | x8 | x8 | [ce]2 x6 | x8 | x8 | x8 | x8 | x8 | x8 | x8 | x8 | %18
 x8 | x8 | x8 | x8 | x8 | x8 | x8 | x8 | x8 | x8 | x8 | x8 | x8 | x8 | x8 | x8 | x8 | x8 | x8 | %37
 x8 | x8 | x8 | x8 | x8 |] %42
V:7
 x8 | x8 | x8 | x8 | x8 | x8 | x8 | x8 | x8 | x8 | x8 | x8 | x8 | x2[K:treble] x6 | x8 | x8 | x8 | %17
 x8 | x8 | x8 | x8 | x8 | x8 | x8 | x8 | x8 | x8 | x8 | x8 | x8 | x8 | x3 MD x2 z2 | x8 | x8 | x8 | %35
 x8 | x8 | x8 | x8 | x8 | x8 | x8 |] %42

